src/pos-icons/text-box-check-outline.svg

<svg height="24" viewBox="0 0 24 24" width="24" xmlns="http://www.w3.org/2000/svg"><path d="m17 21-2.75-3 1.16-1.16 1.59 1.59 3.59-3.59 1.16 1.41m-8.95 4.75h-7.8c-1.11 0-2-.89-2-2v-14c0-1.11.89-2 2-2h14c1.11 0 2 .89 2 2v7.8c-.61-.35-1.28-.6-2-.72v-7.08h-14v14h7.08c.12.72.37 1.39.72 2m-.8-4h-5v-2h5m2.68-2h-7.68v-2h10v1.08c-.85.14-1.63.46-2.32.92m2.32-4h-10v-2h10"/></svg>

<?xml version="1.0" encoding="UTF-8"?><!DOCTYPE svg PUBLIC "-//W3C//DTD SVG 1.1//EN" "http://www.w3.org/Graphics/SVG/1.1/DTD/svg11.dtd"><svg xmlns="http://www.w3.org/2000/svg" xmlns:xlink="http://www.w3.org/1999/xlink" version="1.1" id="mdi-text-box-check-outline" width="24" height="24" viewBox="0 0 24 24"><path d="M17,21L14.25,18L15.41,16.84L17,18.43L20.59,14.84L21.75,16.25M12.8,21H5C3.89,21 3,20.11 3,19V5C3,3.89 3.89,3 5,3H19C20.11,3 21,3.89 21,5V12.8C20.39,12.45 19.72,12.2 19,12.08V5H5V19H12.08C12.2,19.72 12.45,20.39 12.8,21M12,17H7V15H12M14.68,13H7V11H17V12.08C16.15,12.22 15.37,12.54 14.68,13M17,9H7V7H17" /></svg>
